svgs/thin/wine-glass-crack.svg

<svg xmlns="http://www.w3.org/2000/svg" viewBox="0 0 320 512"><!--! Font Awesome Pro 6.3.0 by @fontawesome - https://fontawesome.com License - https://fontawesome.com/license (Commercial License) Copyright 2023 Fonticons, Inc. --><path d="M303.4 192.6l-14.66-163.5C287.3 12.62 273.7 0 257.3 0H62.66C46.35 0 32.73 12.62 31.25 29.1L16.6 192.6c-7.428 82.91 54.86 154.1 135.7 158.5C152.3 351.5 152 351.7 152 352v144H63.1c-4.406 0-8 3.594-8 8s3.594 8 8 8h192c4.406 0 8-3.594 8-8s-3.594-8-8-8H168V352c0-.3242-.3086-.5156-.3457-.8301C248.5 346.8 310.8 275.5 303.4 192.6zM160 336c-35.96 0-69.25-14.74-93.74-41.52C41.54 267.4 29.24 230.8 32.54 194.1l14.65-163.6C47.93 22.25 54.58 16 62.66 16h91.74l27.65 76.03L124.4 120.8C122.1 122 120.5 124.2 120.1 126.7C119.7 129.3 120.5 131.8 122.3 133.7l64 64C187.9 199.2 189.1 200 192 200s4.094-.7813 5.656-2.344c3.125-3.125 3.125-8.188 0-11.31L141.5 130.2l54.08-27.03c3.641-1.812 5.328-6.078 3.938-9.891L171.4 16h85.92c8.076 0 14.73 6.246 15.47 14.53l14.65 163.6c3.293 36.76-9 73.35-33.73 100.4C229.3 321.3 195.1 336 160 336z"/></svg>

<svg xmlns="http://www.w3.org/2000/svg" viewBox="0 0 320 512"><!-- Font Awesome Pro 6.0.0-alpha2 by @fontawesome - https://fontawesome.com License - https://fontawesome.com/license (Commercial License) --><path d="M303.398 192.658L288.746 29.104C287.27 12.621 273.652 0 257.342 0H62.658C46.348 0 32.73 12.621 31.254 29.104L16.602 192.658C9.174 275.564 71.457 346.783 152.346 351.17C152.309 351.484 152 351.676 152 352V496H63.998C59.592 496 55.998 499.594 55.998 504S59.592 512 63.998 512H256.002C260.408 512 264.002 508.406 264.002 504S260.408 496 256.002 496H168V352C168 351.676 167.691 351.484 167.654 351.17C248.543 346.783 310.826 275.564 303.398 192.658ZM160 336C124.037 336 90.748 321.256 66.264 294.482C41.537 267.439 29.244 230.848 32.537 194.086L47.189 30.531C47.932 22.246 54.582 16 62.658 16H154.398L182.047 92.031L124.422 120.844C122.125 122 120.516 124.188 120.109 126.719C119.687 129.25 120.531 131.844 122.344 133.656L186.344 197.656C187.906 199.219 189.953 200 192 200S196.094 199.219 197.656 197.656C200.781 194.531 200.781 189.469 197.656 186.344L141.5 130.188L195.578 103.156C199.219 101.344 200.906 97.078 199.516 93.266L171.42 16H257.342C265.418 16 272.068 22.246 272.811 30.531L287.463 194.086C290.756 230.848 278.463 267.439 253.736 294.482C229.252 321.256 195.963 336 160 336Z"/></svg>
